_files/assets/icon-facebook.svg

<?xml version="1.0" encoding="UTF-8" standalone="no"?>
<svg width="16px" height="16px" viewBox="0 0 16 16" version="1.1" xmlns="http://www.w3.org/2000/svg" xmlns:xlink="http://www.w3.org/1999/xlink">
    <!-- Generator: Sketch 45.1 (43504) - http://www.bohemiancoding.com/sketch -->
    <title>Facebook</title>
    <desc>Created with Sketch.</desc>
    <defs></defs>
    <g id="Web" stroke="none" stroke-width="1" fill="none" fill-rule="evenodd">
        <g id="Post" transform="translate(-915.000000, -3954.000000)" fill="#FFFFFF">
            <g id="Group-8" transform="translate(0.000000, 3762.000000)">
                <g id="socials" transform="translate(915.000000, 192.000000)">
                    <path d="M8.54611842,16 L0.883077174,16 C0.395224219,16 0,15.6045305 0,15.1168676 L0,0.883070321 C0,0.395283235 0.395286302,0 0.883077174,0 L15.1169849,0 C15.6046516,0 16,0.395283235 16,0.883070321 L16,15.1168676 C16,15.6045926 15.6045895,16 15.1169849,16 L11.0397684,16 L11.0397684,9.80391822 L13.1195071,9.80391822 L13.4309184,7.38919521 L11.0397684,7.38919521 L11.0397684,5.84754713 C11.0397684,5.1484291 11.2339039,4.67200323 12.2364299,4.67200323 L13.5151038,4.67144448 L13.5151038,2.51169685 C13.293962,2.48226945 12.5349278,2.41652342 11.6518507,2.41652342 C9.80827807,2.41652342 8.54611842,3.54184208 8.54611842,5.60840295 L8.54611842,7.38919521 L6.4610406,7.38919521 L6.4610406,9.80391822 L8.54611842,9.80391822 L8.54611842,16 L8.54611842,16 Z" id="Facebook"></path>
                </g>
            </g>
        </g>
    </g>
</svg>

<svg xmlns="http://www.w3.org/2000/svg" width="16" height="16">
  <path fill="#FFF" fill-rule="evenodd" d="M8.546 16H.883C.395 16 0 15.605 0 15.117V.883C0 .395.395 0 .883 0h14.234c.488 0 .883.395.883.883v14.234c0 .488-.395.883-.883.883H11.04V9.804h2.08l.31-2.415h-2.39V5.846c0-.7.194-1.176 1.196-1.176h1.28V2.51c-.222-.03-.98-.095-1.864-.095-1.844 0-3.106 1.125-3.106 3.19V7.39H6.46v2.414h2.086V16z"/>
</svg>
